X: 1
T: Tobogubben - Bodapolska
R: Boda-polska
Z: John Chambers <jc@trillian.mit.edu>
M: 3/4
L: 1/8
K: F
|: "F"c>(a- a>c) f>g | "Bb"f>e- e>B d2 | "C7"c>(B- B>G) E>G | "F"F>F- F>A c2 \
|  "F"c>a- a>c f>g | "Bb"f>e- e>B d2 | "C7"c>B- B>G E>G | "F"F2 F4 :|
|: "F"A>F- F>A d>A | "Gm"c>B- B>A G>F | "C"E>G c>e g>e | "F"f>a- a>f c>B \
|  "F"A>F- F>A d>A | "Gm"c>B- B>A G>F | "C"E>G c>e g>e | "F"f2 f4 :|
